X: 05075
T: RHINO'S REEL
C: Bob McQuillen 23 Oct'80
B: Bob's Note Book 5 #75
%R: reel
Z: 2021 John Chambers <jc:trillian.mit.edu>
M: C
L: 1/8
K: G
dc \
| BGDB, CEDC | B,DGA B2cB | ABcd cABc | dgfe dcBA |\
| BGDB, CEDC | B,DGA Bdgb | ageg edBG | A2G2 G2 :|
|: fg \
| agfe dedc | Bcde d2fg | agfe d2dc | BAGB A2BA |\
| G2GB AcBA | Bdgb agfe | dgfg edGA | B2G2 G2 :|
%%begintext align
%% Scott Rajaniemi,
%% one of my super school boys, likes our fiddle tunes
%% pretty well, so here's one of your own, Rhino,
%% with love from Mac -
%%endtext

%%sep 1 1 500

%%sep 1 1 500

